src/assets/icons/map.svg

<svg width="25" height="25" viewBox="0 0 25 25" fill="none" xmlns="http://www.w3.org/2000/svg">
<path fill-rule="evenodd" clip-rule="evenodd" d="M12.9875 2.13672C17.9581 2.13672 21.9875 6.12244 21.9875 11.0391C21.9875 14.2926 19.2652 17.7325 13.9358 21.4799L12.9875 22.1367L12.4153 21.7418C6.83792 17.8926 3.9875 14.3682 3.9875 11.0391C3.9875 6.12244 8.01694 2.13672 12.9875 2.13672ZM12.9875 4.11502C9.12151 4.11502 5.9875 7.21503 5.9875 11.0391C5.9875 13.4416 8.28422 16.3732 12.9875 19.7185C17.6908 16.3732 19.9875 13.4416 19.9875 11.0391C19.9875 7.21503 16.8535 4.11502 12.9875 4.11502ZM12.9875 6.13672C15.1966 6.13672 16.9875 7.92758 16.9875 10.1367C16.9875 12.3459 15.1966 14.1367 12.9875 14.1367C10.7784 14.1367 8.9875 12.3459 8.9875 10.1367C8.9875 7.92758 10.7784 6.13672 12.9875 6.13672ZM12.9875 8.13672C11.8829 8.13672 10.9875 9.03215 10.9875 10.1367C10.9875 11.2413 11.8829 12.1367 12.9875 12.1367C14.0921 12.1367 14.9875 11.2413 14.9875 10.1367C14.9875 9.03215 14.0921 8.13672 12.9875 8.13672Z" fill="#3B3B3B"/>
</svg>

<svg xmlns="http://www.w3.org/2000/svg" width="25" height="25" fill="none" xmlns:v="https://vecta.io/nano"><path fill-rule="evenodd" d="M12.988 2.137c4.971 0 9 3.986 9 8.902 0 3.254-2.722 6.693-8.052 10.441l-.948.657-.572-.395c-5.577-3.849-8.428-7.374-8.428-10.703 0-4.917 4.029-8.902 9-8.902zm0 1.978c-3.866 0-7 3.1-7 6.924 0 2.403 2.297 5.334 7 8.679 4.703-3.345 7-6.277 7-8.679 0-3.824-3.134-6.924-7-6.924zm0 2.022a4 4 0 0 1 0 8 4 4 0 0 1 0-8zm0 2a2 2 0 0 0 0 4 2 2 0 0 0 0-4z" fill="#3b3b3b"/></svg>
